public/images/icn-understand.svg

<svg width="24" height="24" viewBox="0 0 24 24" fill="none" xmlns="http://www.w3.org/2000/svg">
<g id="icn-understand">
<g id="Vector">
<path d="M15.1127 17.1614C19.6258 17.1614 23.2844 13.4808 23.2844 8.94061C23.2844 4.40041 19.6258 0.719856 15.1127 0.719856C10.5996 0.719856 6.94097 4.40041 6.94097 8.94061C6.94097 13.4808 10.5996 17.1614 15.1127 17.1614Z" fill="white"/>
<path d="M15.1127 17.8812C10.2111 17.8812 6.2254 13.8716 6.2254 8.94061C6.2254 4.0096 10.2111 0 15.1127 0C20.0143 0 24 4.0096 24 8.94061C24 13.8716 20.0143 17.8812 15.1127 17.8812ZM15.1127 1.43971C11.0018 1.43971 7.65653 4.80504 7.65653 8.94061C7.65653 13.0762 11.0018 16.4415 15.1127 16.4415C19.2236 16.4415 22.5689 13.0762 22.5689 8.94061C22.5689 4.80504 19.2236 1.43971 15.1127 1.43971Z" fill="#26817C"/>
<path d="M15.1127 14.084C17.9364 14.084 20.2254 11.7812 20.2254 8.94061C20.2254 6.10001 17.9364 3.79724 15.1127 3.79724C12.289 3.79724 10 6.10001 10 8.94061C10 11.7812 12.289 14.084 15.1127 14.084Z" fill="#E0F4F3"/>
<path d="M15.1127 14.8038C11.8998 14.8038 9.28444 12.1728 9.28444 8.94061C9.28444 5.70846 11.8998 3.07738 15.1127 3.07738C18.3256 3.07738 20.941 5.70846 20.941 8.94061C20.941 12.1728 18.3256 14.8038 15.1127 14.8038ZM15.1127 4.5135C12.6869 4.5135 10.7156 6.4967 10.7156 8.93701C10.7156 11.3773 12.6905 13.3605 15.1127 13.3605C17.5349 13.3605 19.5098 11.3737 19.5098 8.93701C19.5098 6.5003 17.5349 4.5135 15.1127 4.5135Z" fill="#26817C"/>
<path d="M6.43797 14.6507L9.2917 17.5215L4.06746 22.7771C3.4021 23.4465 2.32436 23.4465 1.659 22.7771L1.21373 22.3292C0.548371 21.6598 0.548371 20.5756 1.21373 19.9063L6.43797 14.6507Z" fill="#E0F4F3"/>
<path fill-rule="evenodd" clip-rule="evenodd" d="M1.15206 23.2837C1.62433 23.7588 2.24329 23.9964 2.86225 23.9964L2.86583 24C3.48479 24 4.10376 23.7624 4.57603 23.2873L9.79964 18.0324C10.0787 17.7516 10.0787 17.2945 9.79964 17.0138L8.8766 16.0852L9.65307 15.3041C9.93214 15.0233 9.93214 14.5662 9.65307 14.2855C9.374 14.0047 8.91962 14.0047 8.64055 14.2855L7.86408 15.0666L6.94454 14.1416C6.67621 13.8716 6.20036 13.8716 5.93202 14.1416L0.708408 19.3965C0.250447 19.8572 0 20.4691 0 21.117C0 21.7648 0.250447 22.3767 0.708408 22.8374L1.15206 23.2837ZM7.31971 16.549L6.44007 15.6641L1.72093 20.4115C1.53488 20.5987 1.43113 20.847 1.43113 21.1134C1.43113 21.3797 1.53488 21.6281 1.72093 21.8152L2.16458 22.2615V22.2651C2.55098 22.6539 3.1771 22.6539 3.56351 22.2651L8.28265 17.5177L7.40357 16.6333C7.38853 16.6205 7.37389 16.6069 7.35969 16.5926C7.34566 16.5785 7.33233 16.5639 7.31971 16.549Z" fill="#26817C"/>
</g>
</g>
</svg>

<svg xmlns="http://www.w3.org/2000/svg" width="24" height="24" fill="none"><path fill="#fff" d="M15.113 17.161c4.513 0 8.171-3.68 8.171-8.22S19.626.72 15.113.72 6.94 4.4 6.94 8.94s3.659 8.221 8.172 8.221"/><path fill="#26817C" d="M15.113 17.881c-4.902 0-8.888-4.01-8.888-8.94C6.225 4.01 10.211 0 15.113 0S24 4.01 24 8.94c0 4.932-3.986 8.941-8.887 8.941m0-16.441c-4.111 0-7.456 3.365-7.456 7.5 0 4.136 3.345 7.502 7.456 7.502 4.11 0 7.456-3.366 7.456-7.501 0-4.136-3.345-7.501-7.456-7.501"/><path fill="#E0F4F3" d="M15.113 14.084c2.823 0 5.112-2.303 5.112-5.143 0-2.841-2.289-5.144-5.112-5.144S10 6.1 10 8.941c0 2.84 2.289 5.143 5.113 5.143"/><path fill="#26817C" d="M15.113 14.804c-3.213 0-5.829-2.631-5.829-5.863s2.616-5.864 5.829-5.864 5.828 2.631 5.828 5.864-2.615 5.863-5.828 5.863m0-10.29c-2.426 0-4.397 1.983-4.397 4.423s1.975 4.424 4.397 4.424 4.397-1.987 4.397-4.424-1.975-4.423-4.397-4.423"/><path fill="#E0F4F3" d="m6.438 14.65 2.854 2.871-5.225 5.256c-.665.67-1.743.67-2.408 0l-.445-.448a1.72 1.72 0 0 1 0-2.423z"/><path fill="#26817C" fill-rule="evenodd" d="M1.152 23.284a2.4 2.4 0 0 0 1.71.712l.004.004c.619 0 1.238-.238 1.71-.713L9.8 18.032a.724.724 0 0 0 0-1.018l-.923-.929.776-.78a.724.724 0 0 0 0-1.02.714.714 0 0 0-1.012 0l-.777.782-.92-.925a.734.734 0 0 0-1.012 0L.708 19.397A2.42 2.42 0 0 0 0 21.117c0 .648.25 1.26.708 1.72zm6.168-6.735-.88-.885-4.72 4.748a1 1 0 0 0-.289.701c0 .267.104.515.29.702l.444.447v.003a.985.985 0 0 0 1.399 0l4.719-4.747-.88-.885a1 1 0 0 1-.083-.084" clip-rule="evenodd"/></svg>
